eggs/Royal Ludroth.svg

<?xml version="1.0" encoding="UTF-8" standalone="no"?>
<!-- Created with Inkscape (http://www.inkscape.org/) -->

<svg
   xmlns:dc="http://purl.org/dc/elements/1.1/"
   xmlns:cc="http://creativecommons.org/ns#"
   xmlns:rdf="http://www.w3.org/1999/02/22-rdf-syntax-ns#"
   xmlns:svg="http://www.w3.org/2000/svg"
   xmlns="http://www.w3.org/2000/svg"
   xmlns:sodipodi="http://sodipodi.sourceforge.net/DTD/sodipodi-0.dtd"
   xmlns:inkscape="http://www.inkscape.org/namespaces/inkscape"
   width="150"
   height="150"
   viewBox="0 0 39.687499 39.687499"
   version="1.1"
   id="svg8"
   inkscape:version="0.92.4 (5da689c313, 2019-01-14)"
   sodipodi:docname="MHST2-Royal Ludroth Egg.svg">
  <defs
     id="defs2" />
  <sodipodi:namedview
     id="base"
     pagecolor="#ffffff"
     bordercolor="#666666"
     borderopacity="1.0"
     inkscape:pageopacity="0.0"
     inkscape:pageshadow="2"
     inkscape:zoom="0.9899495"
     inkscape:cx="30.503174"
     inkscape:cy="104.88014"
     inkscape:document-units="px"
     inkscape:current-layer="layer1"
     showgrid="false"
     units="px"
     inkscape:window-width="1304"
     inkscape:window-height="745"
     inkscape:window-x="-8"
     inkscape:window-y="-8"
     inkscape:window-maximized="1"
     showguides="true"
     inkscape:guide-bbox="true"
     inkscape:snap-smooth-nodes="true"
     inkscape:snap-global="true">
    <inkscape:grid
       type="xygrid"
       id="grid878" />
  </sodipodi:namedview>
  <metadata
     id="metadata5">
    <rdf:RDF>
      <cc:Work
         rdf:about="">
        <dc:format>image/svg+xml</dc:format>
        <dc:type
           rdf:resource="http://purl.org/dc/dcmitype/StillImage" />
        <dc:title></dc:title>
      </cc:Work>
    </rdf:RDF>
  </metadata>
  <g
     inkscape:label="Layer 1"
     inkscape:groupmode="layer"
     id="layer1"
     transform="translate(0,-257.31251)">
    <path
       inkscape:connector-curvature="0"
       style="fill:#6ded16;fill-opacity:1;stroke:none;stroke-width:1.05833328;stroke-linecap:butt;stroke-linejoin:miter;stroke-miterlimit:4;stroke-dasharray:none;stroke-opacity:1"
       d="m 19.84375,259.34934 c -5.953125,0 -14.0797612,5.97667 -14.0797612,18.92236 0,10.44157 7.3398602,16.69148 14.0797612,16.69148 6.739901,0 14.079758,-6.24991 14.079758,-16.69148 0,-12.94569 -8.126633,-18.92236 -14.079758,-18.92236 z"
       id="path4584-5" />
    <path
       style="fill:#ffda00;stroke:none;stroke-width:1px;stroke-linecap:butt;stroke-linejoin:miter;stroke-opacity:1;fill-opacity:1"
       d="M 53.660156 13.572266 L 45.714844 18.660156 C 45.714844 18.660156 55.267023 34.285454 77.052734 33.392578 C 98.838451 32.49974 110 24.375 110 24.375 L 100.89258 16.697266 C 100.89258 16.697266 95.267859 23.660707 78.75 24.375 C 62.232145 25.089293 53.660156 13.572266 53.660156 13.572266 z M 41.072266 23.482422 L 35.357422 31.160156 C 35.357422 31.160156 40.446709 55.089021 64.107422 60.267578 C 87.768134 65.446136 105.89258 53.21511 112.14258 49.822266 C 118.39258 46.429384 123.21484 47.677734 123.21484 47.677734 L 117.41016 35.357422 C 117.41016 35.357422 112.80235 35.28925 108.5625 38.083984 C 103.31464 41.543197 99.336731 46.79372 80.267578 47.5 C 53.74972 48.482148 41.072266 23.482422 41.072266 23.482422 z M 29.464844 40.625 L 24.496094 54.792969 C 33.840005 57.823432 37.501094 92.799325 69.068359 94.693359 C 100.63563 96.587394 107.70789 83.204071 128.41602 81.941406 L 127.91016 66.537109 C 107.83337 67.168442 109.09637 80.552734 79.296875 80.552734 C 49.497374 80.552734 37.946985 45.892868 29.464844 40.625 z M 21.84375 68.683594 L 21.970703 89.138672 C 30.935805 90.780159 39.648824 123.23084 66.039062 124.74609 C 92.429298 126.26131 109.47524 109.84739 121.84961 111.23633 L 125.89062 98.986328 C 103.541 98.481232 104.92878 113.25555 71.59375 109.59375 C 38.258713 105.93195 37.122307 71.966605 21.84375 68.683594 z M 30.304688 112.37109 C 33.713952 122.47264 48.866127 142.30078 75 142.30078 C 101.13387 142.30078 114.65234 121.71484 114.65234 121.71484 C 99.121252 119.69454 92.428432 137.75119 70.205078 137.24609 C 47.98172 136.74104 44.068017 119.18963 30.304688 112.37109 z "
       transform="matrix(0.26458333,0,0,0.26458333,0,257.31251)"
       id="path840" />
    <path
       style="opacity:0.23800001;fill:#ffffff;fill-opacity:1;stroke:none;stroke-width:0.26458332px;stroke-linecap:butt;stroke-linejoin:miter;stroke-opacity:1"
       d="m 19.84375,259.34933 c -8.8857,0 -14.0797606,9.48073 -14.0797606,18.92236 0,0 1.7175332,-16.91778 14.0797606,-16.91778 12.362227,0 14.07976,16.91778 14.07976,16.91778 0,-9.44163 -5.19406,-18.92236 -14.07976,-18.92236 z"
       id="path4669"
       inkscape:connector-curvature="0"
       sodipodi:nodetypes="scscs" />
    <path
       style="opacity:0.54100001;fill:#000000;stroke:none;stroke-width:0.26458332px;stroke-linecap:butt;stroke-linejoin:miter;stroke-opacity:1"
       d="m 5.7639894,278.27169 c 0.2495754,12.68227 10.9383316,16.69149 14.0797606,16.69149 3.141429,0 13.830186,-4.00922 14.07976,-16.69149 -1.821762,10.2695 -10.606269,13.43381 -14.07976,13.43381 -3.473491,0 -12.2579967,-3.16431 -14.0797606,-13.43381 z"
       id="path4617"
       inkscape:connector-curvature="0" />
    <path
       style="fill:none;stroke:#000000;stroke-width:1.05833328;stroke-linecap:butt;stroke-linejoin:miter;stroke-miterlimit:4;stroke-dasharray:none;stroke-opacity:1"
       d="m 19.84375,259.34933 c -5.953125,0 -14.0797606,5.97667 -14.0797606,18.92236 0,10.44158 7.3398596,16.69149 14.0797606,16.69149 6.739901,0 14.07976,-6.24991 14.07976,-16.69149 0,-12.94569 -8.126635,-18.92236 -14.07976,-18.92236 z"
       id="path4584"
       inkscape:connector-curvature="0" />
  </g>
</svg>

<svg xmlns="http://www.w3.org/2000/svg" viewBox="0 0 39.687 39.687"><path style="fill:#6ded16;fill-opacity:1;stroke:none;stroke-width:1.05833328;stroke-linecap:butt;stroke-linejoin:miter;stroke-miterlimit:4;stroke-dasharray:none;stroke-opacity:1" d="M19.844 259.35c-5.953 0-14.08 5.976-14.08 18.922 0 10.441 7.34 16.691 14.08 16.691s14.08-6.25 14.08-16.691c0-12.946-8.127-18.923-14.08-18.923z" transform="translate(0 -257.313)"/><path style="fill:#ffda00;stroke:none;stroke-width:1px;stroke-linecap:butt;stroke-linejoin:miter;stroke-opacity:1;fill-opacity:1" d="m53.66 13.572-7.945 5.088s9.552 15.625 31.338 14.733C98.838 32.5 110 24.375 110 24.375l-9.107-7.678s-5.625 6.964-22.143 7.678c-16.518.714-25.09-10.803-25.09-10.803zm-12.588 9.91-5.715 7.678s5.09 23.929 28.75 29.108c23.661 5.178 41.786-7.053 48.036-10.446s11.072-2.144 11.072-2.144l-5.805-12.32s-4.608-.069-8.847 2.726c-5.248 3.46-9.226 8.71-28.295 9.416-26.518.982-39.196-24.018-39.196-24.018zM29.465 40.625l-4.969 14.168c9.344 3.03 13.005 38.006 44.572 39.9 31.568 1.894 38.64-11.489 59.348-12.752l-.506-15.404c-20.077.631-18.814 14.016-48.613 14.016-29.8 0-41.35-34.66-49.832-39.928zm-7.621 28.059.127 20.455c8.965 1.641 17.678 34.092 44.068 35.607 26.39 1.515 43.436-14.899 55.81-13.51l4.042-12.25c-22.35-.505-20.962 14.27-54.297 10.608-33.335-3.662-34.472-37.627-49.75-40.91zm8.46 43.687c3.41 10.102 18.562 29.93 44.696 29.93 26.134 0 39.652-20.586 39.652-20.586-15.53-2.02-22.224 16.036-44.447 15.531-22.223-.505-26.137-18.056-39.9-24.875z" transform="scale(.26458)"/><path style="opacity:.23800001;fill:#fff;fill-opacity:1;stroke:none;stroke-width:.26458332px;stroke-linecap:butt;stroke-linejoin:miter;stroke-opacity:1" d="M19.844 259.35c-8.886 0-14.08 9.48-14.08 18.922 0 0 1.718-16.918 14.08-16.918s14.08 16.918 14.08 16.918c0-9.442-5.195-18.923-14.08-18.923z" transform="translate(0 -257.313)"/><path style="opacity:.54100001;fill:#000;stroke:none;stroke-width:.26458332px;stroke-linecap:butt;stroke-linejoin:miter;stroke-opacity:1" d="M5.764 278.272c.25 12.682 10.938 16.691 14.08 16.691 3.141 0 13.83-4.009 14.08-16.691-1.822 10.27-10.607 13.433-14.08 13.433-3.474 0-12.258-3.164-14.08-13.433z" transform="translate(0 -257.313)"/><path style="fill:none;stroke:#000;stroke-width:1.05833328;stroke-linecap:butt;stroke-linejoin:miter;stroke-miterlimit:4;stroke-dasharray:none;stroke-opacity:1" d="M19.844 259.35c-5.953 0-14.08 5.976-14.08 18.922 0 10.441 7.34 16.691 14.08 16.691s14.08-6.25 14.08-16.691c0-12.946-8.127-18.923-14.08-18.923z" transform="translate(0 -257.313)"/></svg>
